status/symbolic/battery-missing-symbolic.svg

<?xml version="1.0" encoding="UTF-8" standalone="no"?>
<!-- Created with Inkscape (http://www.inkscape.org/) -->

<svg
   xmlns:dc="http://purl.org/dc/elements/1.1/"
   xmlns:cc="http://creativecommons.org/ns#"
   xmlns:rdf="http://www.w3.org/1999/02/22-rdf-syntax-ns#"
   xmlns:svg="http://www.w3.org/2000/svg"
   xmlns="http://www.w3.org/2000/svg"
   xmlns:inkscape="http://www.inkscape.org/namespaces/inkscape"
   version="1.1"
   width="16"
   height="16"
   id="svg4598">
  <defs
     id="defs4600" />
  <metadata
     id="metadata4603">
    <rdf:RDF>
      <cc:Work
         rdf:about="">
        <dc:format>image/svg+xml</dc:format>
        <dc:type
           rdf:resource="http://purl.org/dc/dcmitype/StillImage" />
        <dc:title />
      </cc:Work>
    </rdf:RDF>
  </metadata>
  <path
     d="M 1,3 C 0.446,3 0,3.446 0,4 L 0,5 1,5 1,4.5 C 1,4.223 1.223,4 1.5,4 L 2,4 2,3 1,3 z M 4,3 4,4 6,4 6,3 4,3 z m 4,0 0,1 2,0 0,-1 -2,0 z m 4,0 0,1 0.5,0 C 12.777,4 13,4.223 13,4.5 L 13,5 14,5 14,4 C 14,3.446 13.554,3 13,3 l -1,0 z m -8,2 0,1 2,2 -2,2 0,1 1,0 2,-2 2,2 1,0 0,-1 L 8,8 10,6 10,5 9,5 7,7 5,5 4,5 z m 10,1 0,1 0.5,0 C 14.777,7 15,7.223 15,7.5 l 0,1 C 15,8.777 14.777,9 14.5,9 l -0.5,0 0,1 1,0 c 0.554,0 1,-0.446 1,-1 L 16,7 C 16,6.446 15.554,6 15,6 l -1,0 z m 0,3 0,-2 -1,0 0,2 1,0 z M 0,7 0,9 1,9 1,7 0,7 z m 0,4 0,1 c 0,0.554 0.446,1 1,1 l 1,0 0,-1 -0.5,0 C 1.223,12 1,11.777 1,11.5 L 1,11 0,11 z m 13,0 0,0.5 c 0,0.277 -0.223,0.5 -0.5,0.5 l -0.5,0 0,1 1,0 c 0.554,0 1,-0.446 1,-1 l 0,-1 -1,0 z m -9,1 0,1 2,0 0,-1 -2,0 z m 4,0 0,1 2,0 0,-1 -2,0 z"
     inkscape:connector-curvature="0"
     id="rect2998"
     style="color:#bebebe;fill:#bebebe;fill-opacity:1;fill-rule:nonzero;stroke:none;stroke-width:1;marker:none;visibility:visible;display:inline;overflow:visible;enable-background:accumulate" />
</svg>

<?xml version="1.0" encoding="UTF-8" standalone="no"?>
<!-- Created with Inkscape (http://www.inkscape.org/) -->

<svg
   xmlns:dc="http://purl.org/dc/elements/1.1/"
   xmlns:cc="http://creativecommons.org/ns#"
   xmlns:rdf="http://www.w3.org/1999/02/22-rdf-syntax-ns#"
   xmlns:svg="http://www.w3.org/2000/svg"
   xmlns="http://www.w3.org/2000/svg"
   xmlns:sodipodi="http://sodipodi.sourceforge.net/DTD/sodipodi-0.dtd"
   xmlns:inkscape="http://www.inkscape.org/namespaces/inkscape"
   version="1.1"
   width="16"
   height="16"
   id="svg4598"
   inkscape:version="0.48.4 r9939"
   sodipodi:docname="battery-missing-symbolic.svg">
  <sodipodi:namedview
     pagecolor="#ffffff"
     bordercolor="#666666"
     borderopacity="1"
     objecttolerance="10"
     gridtolerance="10"
     guidetolerance="10"
     inkscape:pageopacity="0"
     inkscape:pageshadow="2"
     inkscape:window-width="1280"
     inkscape:window-height="747"
     id="namedview7"
     showgrid="false"
     inkscape:zoom="34.5625"
     inkscape:cx="8"
     inkscape:cy="8"
     inkscape:window-x="0"
     inkscape:window-y="28"
     inkscape:window-maximized="1"
     inkscape:current-layer="svg4598"
     showborder="false">
    <inkscape:grid
       type="xygrid"
       id="grid3010"
       empspacing="5"
       visible="true"
       enabled="true"
       snapvisiblegridlinesonly="true" />
  </sodipodi:namedview>
  <defs
     id="defs4600" />
  <metadata
     id="metadata4603">
    <rdf:RDF>
      <cc:Work
         rdf:about="">
        <dc:format>image/svg+xml</dc:format>
        <dc:type
           rdf:resource="http://purl.org/dc/dcmitype/StillImage" />
        <dc:title />
      </cc:Work>
    </rdf:RDF>
  </metadata>
  <path
     style="color:#bebebe;fill:#bebebe;fill-opacity:1;fill-rule:nonzero;stroke:none;stroke-width:1;marker:none;visibility:visible;display:inline;overflow:visible;enable-background:accumulate"
     d="M 1 3 C 0.446 3 0 3.446 0 4 L 0 5 L 1 5 L 1 4.5 C 1 4.223 1.223 4 1.5 4 L 2 4 L 2 3 L 1 3 z M 4 3 L 4 4 L 6 4 L 6 3 L 4 3 z M 8 3 L 8 4 L 10 4 L 10 3 L 8 3 z M 12 3 L 12 4 L 12.5 4 C 12.777 4 13 4.223 13 4.5 L 13 5 L 14 5 L 14 4 C 14 3.446 13.554 3 13 3 L 12 3 z M 4 5 L 4 6 L 6 8 L 4 10 L 4 11 L 5 11 L 7 9 L 9 11 L 10 11 L 10 10 L 8 8 L 10 6 L 10 5 L 9 5 L 7 7 L 5 5 L 4 5 z M 14 6 L 14 7 L 14.5 7 C 14.777 7 15 7.223 15 7.5 L 15 8.5 C 15 8.777 14.777 9 14.5 9 L 14 9 L 14 10 L 15 10 C 15.554 10 16 9.554 16 9 L 16 7 C 16 6.446 15.554 6 15 6 L 14 6 z M 14 9 L 14 7 L 13 7 L 13 9 L 14 9 z M 0 7 L 0 9 L 1 9 L 1 7 L 0 7 z M 0 11 L 0 12 C 0 12.554 0.446 13 1 13 L 2 13 L 2 12 L 1.5 12 C 1.223 12 1 11.777 1 11.5 L 1 11 L 0 11 z M 13 11 L 13 11.5 C 13 11.777 12.777 12 12.5 12 L 12 12 L 12 13 L 13 13 C 13.554 13 14 12.554 14 12 L 14 11 L 13 11 z M 4 12 L 4 13 L 6 13 L 6 12 L 4 12 z M 8 12 L 8 13 L 10 13 L 10 12 L 8 12 z "
     id="rect2998" />
</svg>
